gtk-icons/Papirus-Dark-GTK/16x16/actions/im-gadugadu.svg

<?xml version="1.0" encoding="UTF-8" standalone="no"?>
<!-- Created with Inkscape (http://www.inkscape.org/) -->

<svg
   xmlns:osb="http://www.openswatchbook.org/uri/2009/osb"
   xmlns:dc="http://purl.org/dc/elements/1.1/"
   xmlns:cc="http://creativecommons.org/ns#"
   xmlns:rdf="http://www.w3.org/1999/02/22-rdf-syntax-ns#"
   xmlns:svg="http://www.w3.org/2000/svg"
   xmlns="http://www.w3.org/2000/svg"
   xmlns:sodipodi="http://sodipodi.sourceforge.net/DTD/sodipodi-0.dtd"
   xmlns:inkscape="http://www.inkscape.org/namespaces/inkscape"
   sodipodi:docname="im-gadugadu.svg"
   inkscape:export-filename="/home/sam/source-symbolic.png"
   inkscape:export-xdpi="270"
   inkscape:export-ydpi="270"
   height="16"
   id="svg7384"
   style="enable-background:new"
   version="1.1"
   inkscape:version="0.91 r"
   width="16">
  <sodipodi:namedview
     inkscape:bbox-nodes="true"
     inkscape:bbox-paths="false"
     bordercolor="#666666"
     borderlayer="false"
     borderopacity="1"
     inkscape:current-layer="layer12"
     inkscape:cx="8.5518959"
     inkscape:cy="4.1989792"
     gridtolerance="10"
     inkscape:guide-bbox="true"
     guidetolerance="10"
     id="namedview88"
     inkscape:object-nodes="true"
     inkscape:object-paths="true"
     objecttolerance="10"
     pagecolor="#f7f7f7"
     inkscape:pageopacity="0"
     inkscape:pageshadow="2"
     showborder="true"
     showgrid="false"
     showguides="false"
     inkscape:showpageshadow="false"
     inkscape:snap-bbox="true"
     inkscape:snap-bbox-edge-midpoints="false"
     inkscape:snap-bbox-midpoints="true"
     inkscape:snap-center="false"
     inkscape:snap-global="true"
     inkscape:snap-grids="true"
     inkscape:snap-intersection-paths="true"
     inkscape:snap-midpoints="true"
     inkscape:snap-nodes="true"
     inkscape:snap-object-midpoints="true"
     inkscape:snap-others="true"
     inkscape:snap-page="false"
     inkscape:snap-smooth-nodes="true"
     inkscape:snap-to-guides="true"
     inkscape:window-height="842"
     inkscape:window-maximized="1"
     inkscape:window-width="1600"
     inkscape:window-x="-4"
     inkscape:window-y="32"
     inkscape:zoom="14.06">
    <inkscape:grid
       color="#ffffff"
       dotted="false"
       empcolor="#0800ff"
       empopacity="0.4627451"
       empspacing="4"
       enabled="true"
       id="grid4866"
       opacity="0.16470588"
       originx="-184.0002"
       originy="-336.00336"
       snapvisiblegridlinesonly="true"
       spacingx="0.25px"
       spacingy="0.25px"
       type="xygrid"
       visible="true" />
  </sodipodi:namedview>
  <metadata
     id="metadata90">
    <rdf:RDF>
      <cc:Work
         rdf:about="">
        <dc:format>image/svg+xml</dc:format>
        <dc:type
           rdf:resource="http://purl.org/dc/dcmitype/StillImage" />
        <dc:title>Paper Symbolic Icon Theme</dc:title>
      </cc:Work>
    </rdf:RDF>
  </metadata>
  <title
     id="title8473">Paper Symbolic Icon Theme</title>
  <defs
     id="defs7386">
    <linearGradient
       id="linearGradient5606"
       osb:paint="solid">
      <stop
         id="stop5608"
         offset="0"
         style="stop-color:#ffffff;stop-opacity:1;" />
    </linearGradient>
  </defs>
  <g
     inkscape:groupmode="layer"
     id="layer12"
     inkscape:label="actions"
     style="display:inline"
     transform="translate(-425.0004,119.00336)">
    <path
       style="opacity:0.72;fill:#ffffff;fill-opacity:1;stroke:none"
       d="M 8 0 L 6.8847656 3.1347656 C 6.3321158 3.261278 5.817784 3.480408 5.3515625 3.7734375 L 2.34375 2.34375 L 3.7734375 5.3515625 C 3.4804072 5.8177839 3.2612785 6.3321147 3.1347656 6.8847656 L 0 8 L 3.1347656 9.1152344 C 3.2612785 9.6678842 3.4804072 10.182215 3.7734375 10.648438 L 2.34375 13.65625 L 5.3535156 12.224609 C 5.8193966 12.517224 6.3326342 12.73884 6.8847656 12.865234 L 8 16 L 9.1152344 12.865234 C 9.6673658 12.73884 10.180603 12.517224 10.646484 12.224609 L 13.65625 13.65625 L 12.224609 10.646484 C 12.517224 10.180603 12.73884 9.6673658 12.865234 9.1152344 L 16 8 L 12.865234 6.8847656 C 12.73884 6.3326332 12.517224 5.8193965 12.224609 5.3535156 L 13.65625 2.34375 L 10.648438 3.7734375 C 10.182215 3.480408 9.6678842 3.261278 9.1152344 3.1347656 L 8 0 z M 6 6 A 1 1 0 0 1 7 7 A 1 1 0 0 1 6 8 A 1 1 0 0 1 5 7 A 1 1 0 0 1 6 6 z M 10 6 A 1 1 0 0 1 11 7 A 1 1 0 0 1 10 8 A 1 1 0 0 1 9 7 A 1 1 0 0 1 10 6 z M 10.498047 9.4960938 A 0.50005 0.50005 0 0 1 10.8125 10.390625 C 10.8125 10.390625 9.5171831 11.496 8.0019531 11.5 C 6.4916031 11.50406 5.1933594 10.425781 5.1933594 10.425781 A 0.50005 0.50005 0 1 1 5.8066406 9.6367188 C 5.8066406 9.6367188 7.00996 10.503 8 10.5 C 8.98518 10.49764 10.189453 9.609375 10.189453 9.609375 A 0.50005 0.50005 0 0 1 10.498047 9.4960938 z "
       transform="translate(425.0004,-119.00336)"
       id="path4646-0" />
  </g>
</svg>

<?xml version="1.0" encoding="UTF-8" standalone="no"?>
<!-- Created with Inkscape (http://www.inkscape.org/) -->
<svg id="svg7384" xmlns:rdf="http://www.w3.org/1999/02/22-rdf-syntax-ns#" style="enable-background:new" xmlns="http://www.w3.org/2000/svg" xmlns:osb="http://www.openswatchbook.org/uri/2009/osb" height="16" width="16" version="1.1" xmlns:cc="http://creativecommons.org/ns#" xmlns:dc="http://purl.org/dc/elements/1.1/">
 <metadata id="metadata90">
  <rdf:RDF>
   <cc:Work rdf:about="">
    <dc:format>image/svg+xml</dc:format>
    <dc:type rdf:resource="http://purl.org/dc/dcmitype/StillImage"/>
    <dc:title>Paper Symbolic Icon Theme</dc:title>
   </cc:Work>
  </rdf:RDF>
 </metadata>
 <title id="title8473">Paper Symbolic Icon Theme</title>
 <g id="layer12" transform="translate(-425 119)">
  <path id="path4646-0" opacity=".72" d="m8 0l-1.1152 3.1348c-0.5527 0.1265-1.067 0.3456-1.5332 0.6386l-3.0078-1.4296 1.4296 3.0078c-0.293 0.4662-0.5121 0.9805-0.6386 1.5332l-3.1348 1.1152 3.1348 1.1152c0.1265 0.5527 0.3456 1.0668 0.6386 1.5328l-1.4296 3.008 3.0097-1.431c0.4659 0.292 0.9791 0.514 1.5313 0.64l1.1152 3.135 1.1152-3.135c0.5522-0.126 1.0658-0.348 1.5308-0.64l3.01 1.431-1.431-3.01c0.292-0.465 0.514-0.9786 0.64-1.5308l3.135-1.1152-3.135-1.1152c-0.126-0.5522-0.348-1.0654-0.64-1.5313l1.431-3.0097-3.008 1.4296c-0.466-0.293-0.9801-0.5121-1.5328-0.6386l-1.1152-3.1348zm-2 6a1 1 0 0 1 1 1 1 1 0 0 1 -1 1 1 1 0 0 1 -1 -1 1 1 0 0 1 1 -1zm4 0a1 1 0 0 1 1 1 1 1 0 0 1 -1 1 1 1 0 0 1 -1 -1 1 1 0 0 1 1 -1zm0.498 3.4961a0.50005 0.50005 0 0 1 0.314 0.8949s-1.2948 1.105-2.81 1.109c-1.5104 0.004-2.8086-1.074-2.8086-1.074a0.50005 0.50005 0 1 1 0.6132 -0.7893s1.2034 0.8663 2.1934 0.8633c0.9852-0.002 2.189-0.8906 2.189-0.8906a0.50005 0.50005 0 0 1 0.309 -0.1133z" transform="translate(425 -119)" fill="#fff"/>
 </g>
</svg>
